X:312
T:The Happy Pair
C:John Johnson, c. 1733
M:2/2
L:1/4
S:Colin Hume's website,  colinhume.com  - chords can also be printed below the stave.
Q:1/2=100
K:G
P:A
|: "G"GB "/"BA/G/ | "Am"A/B/c "D7"c2 | "G"B/c/d "/"dc/B/ | "Am"A/G/F/E/ "D7"D2 |\
"G"B/c/d "G7"d c/B/ | "C"c/d/e "Am"e/f/g | "G"dc/B/ "Am"c/B/A/G/ | "D7"DF "G"G2 :|
P:B
|: "G"gd "/"dc/B/ | "G"gd "/"d2 | "C"ec "Am"e/d/c/B/ | "D7"A/G/F/E/ "/"D2 |\
"G"G/A/B/G/ "Am"A/B/c/A/ | "G/B"B/c/d/B/ "C"c/d/e/c/ | "G/D"dg "Am"AB | "D7"DF "G"G2 :|

